!!!OTL: MAEDCHEN MIT DEN BLAUEN AUGEN
!!!ARE: Europa, Mitteleuropa, Deutschland, Westerwald, Niegerwambach
!!!SCT: B0427A
!!!YEM: Copyright 1995, estate of Helmut Schaffrath.
**kern
*ICvox
*Ivox
*M3/4
*k[]
*C:
=1
{8.G
16A
8G
8A
8G
8e
=2
4e
4c}
{8f
8e
=3
4e
8d
8G
8A
8B
=4
2c}
{8f
8e
=5
8d
8g
4g
8f
8d
=6
8c
8e
4e}
{8f
8e
=7
8d
8g
4g
8f
8d
=8
8c
8e
4e
4r}
=9
{8.G
16A
8G
8A
8G
8e
=10
4e
4c}
{8a
8g
=11
4g
8f
8G
8A
8B
=12
2c
4r}
==
!!!AGN: Liebes - Lied, Liebes - Lust
!!!ONB: ESAC (Essen Associative Code) Database: BOEHME
!!!AMT: simple triple
!!!AIN: vox
!!!EED: Helmut Schaffrath
!!!EEV: 1.0
*-
